X: 1
T: Danse de Compagne
C: Philippe Bruneau
R: reel
Z: 2012 John Chambers <jc:trillian.mit.edu>
S: printed MS of unknown origin, with the tune labelled "Violin"
M: C|
L: 1/8
K: G
D2 |\
"G"Gg2g g2d2 | "C"efge "G"dBG2 | "Am"Aa2a a2a2 | "D7"fgab afdf | "G"g3g g2d2 |
"C"efge "G"dBGB | "Am"cBAc "G"BAGB | "D7"AGFA "G"G2 :: D2 | "G"GABc d2Bd | "C"efge "G"dBG2 |
"C"efge "G"dBGB | "Am"cBAG "D7"FADF | "G"GABc d2Bd | "C"efge "G"dBG2 | "C"efge "G"dBGB | "D7"cAFD "G"G2 :|
